X: 2
T: Song of Pretended Search
C: Teton Sioux band 1911-1914
N: Derived from sioux002.krn
O: South Dakota, U.S.A.
N: Teton Sioux Music by Frances Densmore, 1918
Z: transcribed to **kern format by Craig Sapp
L: 1/8
M: 2/4
Q: 1/4=58
K: Eb clef=bass
%%linebreak <none>
(3C C CG,2 | 
C4- | 
C4 | 
(3B, B, B,G,2 | 
G,4- | 
G,4 | 
(3F, F, F,E,2 | 
G,4- | 
G,4 | 
(3G, F, E,E,2 | 
E,4- | 
E,4 | 
E,2E,2 | 
G,2G,2 | 
E,2C,2 | 
E,4- | 
E,4 | 
E, F, E, C, | 
C,4 | 
C,4 :|]  



